X: 25384
T: March Hare, The
R: hornpipe
M: 4/4
K: Gminor
|:(3DE^F|G2d2 d2cd|B2AG FG AF|GF GA BA Bc|de fe dc (3BAG|
D2G2 G2 GA|B2AG FG (3AGF|GA (3BAG FG (3AGF|G2G2 G4:|
|:B2Bc d2 de|f2fe dc (3BAG|F2FG A2 AB|c2cB AG F2|
G2 GA B2 Bc|d2dc BG A2|Bc (3dcB AB (3cBA|G2G2 G4:|
|:c2c2 c2BG|F2FG FE C2|c2c2 c2cd|e2 dc Bc (3dcB|
c2c2c2 BG|F2FG FE CD|EF (3GFE DE (3FED|C2C2 C4:|

